X:42
T:Master McDonald St. Martin's Strathspey
S:Petrie's Collection of Strathspey Reels and Country Dances &c., 1790
Z:Steve Wyrick <sjwyrick'at'gmail'dot'com>, 3/19/04
N:Petrie's First Collection, page 19
L:1/8
M:C
R:Strathspey
K:Gm
F|D(GG)B/c/        d>GB<G      |C(FF)A/B/        c>FA>F        |\
  DGG  B/c/        d>GB<g      |fd  c/d/f/A/     BGG          :|
d|(b/4a/4g3/2) g>d B<d (Tgf/g/)|(a/4g/4f3/2) fc  Ac (Tf=e/2f/2)|\
  (b/4a/4g3/2) g>d B>dG<g      |f>d c/d/f/A/  {A}G2Gg          |
  (b/4a/4g3/2) g>d B<d (Tgf/g/)|(a/4g/4f3/2) f>c A<c (Tf=e/f/) |\
   g<bd<g          BdG>g       |fd  c/d/f/d/  {A}G2G2         |]
%The original notated the next to last measure like this:
% |g<bd<g Bd3/2Gg/| which appears to be an error -SW
